report_00007_2020-12-11T15:55:29.892Z/meta/score/progression/stddev.svg

<svg width="640" height="500" xmlns="http://www.w3.org/2000/svg" xmlns:xlink="http://www.w3.org/1999/xlink"><path fill="#fff" d="M0 0h640v500H0z"/><defs><path id="g" stroke-width=".222" stroke="currentColor" d="M-1 0h2M0-1v2"/><path id="h" stroke-width=".222" stroke="currentColor" d="M-1-1l2 2m0-2l-2 2"/><path id="d" stroke-width=".222" stroke="currentColor" d="M-1-1h2v2h-2z"/><path id="b" stroke-width=".222" stroke="currentColor" d="M0-1.33l-1.33 2h2.66z"/><path id="f" stroke-width=".222" stroke="currentColor" d="M0 1.33L1.265.411.782-1.067l-1.564-.009-.483 1.487z"/><use xlink:href="#b" id="c" stroke="currentColor" transform="rotate(180)"/><use xlink:href="#d" id="e" stroke="currentColor" transform="rotate(45)"/><circle id="a" stroke-width=".222" stroke="currentColor" cx="0" cy="0" r="1"/></defs><g fill="none" color="#000" stroke="currentColor"><path stroke="#000" d="M53.9 437.8h9m552.1 0h-9"/><text transform="translate(45.6 441.7)" stroke="none" fill="#000" font-family="Arial" font-size="12" text-anchor="end"><tspan>0</tspan></text></g><g fill="none" color="#000" stroke="currentColor"><path stroke="#000" d="M53.9 355.9h9m552.1 0h-9"/><text transform="translate(45.6 359.8)" stroke="none" fill="#000" font-family="Arial" font-size="12" text-anchor="end"><tspan>0.2</tspan></text></g><g fill="none" color="#000" stroke="currentColor"><path stroke="#000" d="M53.9 274h9m552.1 0h-9"/><text transform="translate(45.6 277.9)" stroke="none" fill="#000" font-family="Arial" font-size="12" text-anchor="end"><tspan>0.4</tspan></text></g><g fill="none" color="#000" stroke="currentColor"><path stroke="#000" d="M53.9 192.2h9m552.1 0h-9"/><text transform="translate(45.6 196.1)" stroke="none" fill="#000" font-family="Arial" font-size="12" text-anchor="end"><tspan>0.6</tspan></text></g><g fill="none" color="#000" stroke="currentColor"><path stroke="#000" d="M53.9 110.3h9m552.1 0h-9"/><text transform="translate(45.6 114.2)" stroke="none" fill="#000" font-family="Arial" font-size="12" text-anchor="end"><tspan>0.8</tspan></text></g><g fill="none" color="#000" stroke="currentColor"><path stroke="#000" d="M53.9 28.4h9m552.1 0h-9"/><text transform="translate(45.6 32.3)" stroke="none" fill="#000" font-family="Arial" font-size="12" text-anchor="end"><tspan>1</tspan></text></g><g fill="none" color="#000" stroke="currentColor"><path stroke="#000" d="M53.9 446v-9m0-418.9v9"/><text transform="translate(53.9 467.9)" stroke="none" fill="#000" font-family="Arial" font-size="12" text-anchor="middle"><tspan>0</tspan></text></g><g fill="none" color="#000" stroke="currentColor"><path stroke="#000" d="M140.2 446v-9m0-418.9v9"/><text transform="translate(140.2 467.9)" stroke="none" fill="#000" font-family="Arial" font-size="12" text-anchor="middle"><tspan>2</tspan></text></g><g fill="none" color="#000" stroke="currentColor"><path stroke="#000" d="M226.5 446v-9m0-418.9v9"/><text transform="translate(226.5 467.9)" stroke="none" fill="#000" font-family="Arial" font-size="12" text-anchor="middle"><tspan>4</tspan></text></g><g fill="none" color="#000" stroke="currentColor"><path stroke="#000" d="M312.9 446v-9m0-418.9v9"/><text transform="translate(312.9 467.9)" stroke="none" fill="#000" font-family="Arial" font-size="12" text-anchor="middle"><tspan>6</tspan></text></g><g fill="none" color="#000" stroke="currentColor"><path stroke="#000" d="M399.2 446v-9m0-418.9v9"/><text transform="translate(399.2 467.9)" stroke="none" fill="#000" font-family="Arial" font-size="12" text-anchor="middle"><tspan>8</tspan></text></g><g fill="none" color="#000" stroke="currentColor"><path stroke="#000" d="M485.5 446v-9m0-418.9v9"/><text transform="translate(485.5 467.9)" stroke="none" fill="#000" font-family="Arial" font-size="12" text-anchor="middle"><tspan>10</tspan></text></g><g fill="none" color="#000" stroke="currentColor"><path stroke="#000" d="M571.8 446v-9m0-418.9v9"/><text transform="translate(571.8 467.9)" stroke="none" fill="#000" font-family="Arial" font-size="12" text-anchor="middle"><tspan>12</tspan></text></g><path stroke="#000" d="M53.9 18.1V446H615V18.1H53.9z" fill="none" color="#000"/><text transform="translate(275.6 485.9)" stroke="none" fill="#000" font-family="Arial" font-size="12" text-anchor="end" color="#000"><tspan>p90stdev</tspan></text><g fill="none" color="#000" stroke="currentColor"><path stroke="#9400D3" d="M283.9 482h42.2M53.9 437.8l43.2-6.1 43.1.9 43.2.8 43.1.6 43.2.2 43.2-.6 43.1.6 43.2-1 43.2 3.9 86.3-2.6 43.1 3.1 43.2.2"/><use xlink:href="#g" transform="matrix(4.5 0 0 4.5 53.9 437.8)" color="#9400D3"/><use xlink:href="#g" transform="matrix(4.5 0 0 4.5 97.1 431.7)" color="#9400D3"/><use xlink:href="#g" transform="matrix(4.5 0 0 4.5 140.2 432.6)" color="#9400D3"/><use xlink:href="#g" transform="matrix(4.5 0 0 4.5 183.4 433.4)" color="#9400D3"/><use xlink:href="#g" transform="matrix(4.5 0 0 4.5 226.5 434)" color="#9400D3"/><use xlink:href="#g" transform="matrix(4.5 0 0 4.5 269.7 434.2)" color="#9400D3"/><use xlink:href="#g" transform="matrix(4.5 0 0 4.5 312.9 433.6)" color="#9400D3"/><use xlink:href="#g" transform="matrix(4.5 0 0 4.5 356 434.2)" color="#9400D3"/><use xlink:href="#g" transform="matrix(4.5 0 0 4.5 399.2 433.2)" color="#9400D3"/><use xlink:href="#g" transform="matrix(4.5 0 0 4.5 442.4 437.1)" color="#9400D3"/><use xlink:href="#g" transform="matrix(4.5 0 0 4.5 528.7 434.5)" color="#9400D3"/><use xlink:href="#g" transform="matrix(4.5 0 0 4.5 571.8 437.6)" color="#9400D3"/><use xlink:href="#g" transform="matrix(4.5 0 0 4.5 615 437.8)" color="#9400D3"/><use xlink:href="#g" transform="matrix(4.5 0 0 4.5 305 482)" color="#9400D3"/></g><text transform="translate(475.5 485.9)" stroke="none" fill="#000" font-family="Arial" font-size="12" text-anchor="end" color="#000"><tspan>p90outlandishness</tspan></text><g fill="none" color="#000" stroke="currentColor"><path stroke="#009E73" d="M483.8 482H526M53.9 28.4l43.2-2.1 43.1 5.7 43.2-.4 43.1-3.3 43.2.1 43.2 2.6 43.1-.4 43.2-4.3 43.2 7.1 86.3-3.4 43.1-.4 43.2-1.2"/><use xlink:href="#h" transform="matrix(4.5 0 0 4.5 53.9 28.4)" color="#009E73"/><use xlink:href="#h" transform="matrix(4.5 0 0 4.5 97.1 26.3)" color="#009E73"/><use xlink:href="#h" transform="matrix(4.5 0 0 4.5 140.2 32)" color="#009E73"/><use xlink:href="#h" transform="matrix(4.5 0 0 4.5 183.4 31.6)" color="#009E73"/><use xlink:href="#h" transform="matrix(4.5 0 0 4.5 226.5 28.3)" color="#009E73"/><use xlink:href="#h" transform="matrix(4.5 0 0 4.5 269.7 28.4)" color="#009E73"/><use xlink:href="#h" transform="matrix(4.5 0 0 4.5 312.9 31)" color="#009E73"/><use xlink:href="#h" transform="matrix(4.5 0 0 4.5 356 30.6)" color="#009E73"/><use xlink:href="#h" transform="matrix(4.5 0 0 4.5 399.2 26.3)" color="#009E73"/><use xlink:href="#h" transform="matrix(4.5 0 0 4.5 442.4 33.4)" color="#009E73"/><use xlink:href="#h" transform="matrix(4.5 0 0 4.5 528.7 30)" color="#009E73"/><use xlink:href="#h" transform="matrix(4.5 0 0 4.5 571.8 29.6)" color="#009E73"/><use xlink:href="#h" transform="matrix(4.5 0 0 4.5 615 28.4)" color="#009E73"/><use xlink:href="#h" transform="matrix(4.5 0 0 4.5 504.9 482)" color="#009E73"/></g><g fill="none" color="#000" stroke="currentColor"><path stroke="#000" d="M53.9 18.1V446H615V18.1H53.9z"/></g></svg>

<?xml version="1.0" encoding="utf-8"  standalone="no"?>
<svg 
 width="640" height="500"
 viewBox="0 0 640 500"
 xmlns="http://www.w3.org/2000/svg"
 xmlns:xlink="http://www.w3.org/1999/xlink"
>

<title>Gnuplot</title>
<desc>Produced by GNUPLOT 5.4 patchlevel 0 </desc>

<g id="gnuplot_canvas">

<rect x="0" y="0" width="640" height="500" fill="#ffffff"/>
<defs>

	<circle id='gpDot' r='0.5' stroke-width='0.5' stroke='currentColor'/>
	<path id='gpPt0' stroke-width='0.222' stroke='currentColor' d='M-1,0 h2 M0,-1 v2'/>
	<path id='gpPt1' stroke-width='0.222' stroke='currentColor' d='M-1,-1 L1,1 M1,-1 L-1,1'/>
	<path id='gpPt2' stroke-width='0.222' stroke='currentColor' d='M-1,0 L1,0 M0,-1 L0,1 M-1,-1 L1,1 M-1,1 L1,-1'/>
	<rect id='gpPt3' stroke-width='0.222' stroke='currentColor' x='-1' y='-1' width='2' height='2'/>
	<rect id='gpPt4' stroke-width='0.222' stroke='currentColor' fill='currentColor' x='-1' y='-1' width='2' height='2'/>
	<circle id='gpPt5' stroke-width='0.222' stroke='currentColor' cx='0' cy='0' r='1'/>
	<use xlink:href='#gpPt5' id='gpPt6' fill='currentColor' stroke='none'/>
	<path id='gpPt7' stroke-width='0.222' stroke='currentColor' d='M0,-1.33 L-1.33,0.67 L1.33,0.67 z'/>
	<use xlink:href='#gpPt7' id='gpPt8' fill='currentColor' stroke='none'/>
	<use xlink:href='#gpPt7' id='gpPt9' stroke='currentColor' transform='rotate(180)'/>
	<use xlink:href='#gpPt9' id='gpPt10' fill='currentColor' stroke='none'/>
	<use xlink:href='#gpPt3' id='gpPt11' stroke='currentColor' transform='rotate(45)'/>
	<use xlink:href='#gpPt11' id='gpPt12' fill='currentColor' stroke='none'/>
	<path id='gpPt13' stroke-width='0.222' stroke='currentColor' d='M0,1.330 L1.265,0.411 L0.782,-1.067 L-0.782,-1.076 L-1.265,0.411 z'/>
	<use xlink:href='#gpPt13' id='gpPt14' fill='currentColor' stroke='none'/>
	<filter id='textbox' filterUnits='objectBoundingBox' x='0' y='0' height='1' width='1'>
	  <feFlood flood-color='#FFFFFF' flood-opacity='1' result='bgnd'/>
	  <feComposite in='SourceGraphic' in2='bgnd' operator='atop'/>
	</filter>
	<filter id='greybox' filterUnits='objectBoundingBox' x='0' y='0' height='1' width='1'>
	  <feFlood flood-color='lightgrey' flood-opacity='1' result='grey'/>
	  <feComposite in='SourceGraphic' in2='grey' operator='atop'/>
	</filter>
</defs>
<g fill="none" color="#FFFFFF" stroke="black" stroke-width="1.00" stroke-linecap="butt" stroke-linejoin="miter">
</g>
<g fill="none" color="black" stroke="currentColor" stroke-width="1.00" stroke-linecap="butt" stroke-linejoin="miter">
	<path stroke='black'  d='M53.9,437.8 L62.9,437.8 M615.0,437.8 L606.0,437.8  '/>	<g transform="translate(45.6,441.7)" stroke="none" fill="black" font-family="Arial" font-size="12.00"  text-anchor="end">
		<text><tspan font-family="Arial" > 0</tspan></text>
	</g>
</g>
<g fill="none" color="black" stroke="currentColor" stroke-width="1.00" stroke-linecap="butt" stroke-linejoin="miter">
	<path stroke='black'  d='M53.9,355.9 L62.9,355.9 M615.0,355.9 L606.0,355.9  '/>	<g transform="translate(45.6,359.8)" stroke="none" fill="black" font-family="Arial" font-size="12.00"  text-anchor="end">
		<text><tspan font-family="Arial" > 0.2</tspan></text>
	</g>
</g>
<g fill="none" color="black" stroke="currentColor" stroke-width="1.00" stroke-linecap="butt" stroke-linejoin="miter">
	<path stroke='black'  d='M53.9,274.0 L62.9,274.0 M615.0,274.0 L606.0,274.0  '/>	<g transform="translate(45.6,277.9)" stroke="none" fill="black" font-family="Arial" font-size="12.00"  text-anchor="end">
		<text><tspan font-family="Arial" > 0.4</tspan></text>
	</g>
</g>
<g fill="none" color="black" stroke="currentColor" stroke-width="1.00" stroke-linecap="butt" stroke-linejoin="miter">
	<path stroke='black'  d='M53.9,192.2 L62.9,192.2 M615.0,192.2 L606.0,192.2  '/>	<g transform="translate(45.6,196.1)" stroke="none" fill="black" font-family="Arial" font-size="12.00"  text-anchor="end">
		<text><tspan font-family="Arial" > 0.6</tspan></text>
	</g>
</g>
<g fill="none" color="black" stroke="currentColor" stroke-width="1.00" stroke-linecap="butt" stroke-linejoin="miter">
	<path stroke='black'  d='M53.9,110.3 L62.9,110.3 M615.0,110.3 L606.0,110.3  '/>	<g transform="translate(45.6,114.2)" stroke="none" fill="black" font-family="Arial" font-size="12.00"  text-anchor="end">
		<text><tspan font-family="Arial" > 0.8</tspan></text>
	</g>
</g>
<g fill="none" color="black" stroke="currentColor" stroke-width="1.00" stroke-linecap="butt" stroke-linejoin="miter">
	<path stroke='black'  d='M53.9,28.4 L62.9,28.4 M615.0,28.4 L606.0,28.4  '/>	<g transform="translate(45.6,32.3)" stroke="none" fill="black" font-family="Arial" font-size="12.00"  text-anchor="end">
		<text><tspan font-family="Arial" > 1</tspan></text>
	</g>
</g>
<g fill="none" color="black" stroke="currentColor" stroke-width="1.00" stroke-linecap="butt" stroke-linejoin="miter">
	<path stroke='black'  d='M53.9,446.0 L53.9,437.0 M53.9,18.1 L53.9,27.1  '/>	<g transform="translate(53.9,467.9)" stroke="none" fill="black" font-family="Arial" font-size="12.00"  text-anchor="middle">
		<text><tspan font-family="Arial" > 0</tspan></text>
	</g>
</g>
<g fill="none" color="black" stroke="currentColor" stroke-width="1.00" stroke-linecap="butt" stroke-linejoin="miter">
	<path stroke='black'  d='M140.2,446.0 L140.2,437.0 M140.2,18.1 L140.2,27.1  '/>	<g transform="translate(140.2,467.9)" stroke="none" fill="black" font-family="Arial" font-size="12.00"  text-anchor="middle">
		<text><tspan font-family="Arial" > 2</tspan></text>
	</g>
</g>
<g fill="none" color="black" stroke="currentColor" stroke-width="1.00" stroke-linecap="butt" stroke-linejoin="miter">
	<path stroke='black'  d='M226.5,446.0 L226.5,437.0 M226.5,18.1 L226.5,27.1  '/>	<g transform="translate(226.5,467.9)" stroke="none" fill="black" font-family="Arial" font-size="12.00"  text-anchor="middle">
		<text><tspan font-family="Arial" > 4</tspan></text>
	</g>
</g>
<g fill="none" color="black" stroke="currentColor" stroke-width="1.00" stroke-linecap="butt" stroke-linejoin="miter">
	<path stroke='black'  d='M312.9,446.0 L312.9,437.0 M312.9,18.1 L312.9,27.1  '/>	<g transform="translate(312.9,467.9)" stroke="none" fill="black" font-family="Arial" font-size="12.00"  text-anchor="middle">
		<text><tspan font-family="Arial" > 6</tspan></text>
	</g>
</g>
<g fill="none" color="black" stroke="currentColor" stroke-width="1.00" stroke-linecap="butt" stroke-linejoin="miter">
	<path stroke='black'  d='M399.2,446.0 L399.2,437.0 M399.2,18.1 L399.2,27.1  '/>	<g transform="translate(399.2,467.9)" stroke="none" fill="black" font-family="Arial" font-size="12.00"  text-anchor="middle">
		<text><tspan font-family="Arial" > 8</tspan></text>
	</g>
</g>
<g fill="none" color="black" stroke="currentColor" stroke-width="1.00" stroke-linecap="butt" stroke-linejoin="miter">
	<path stroke='black'  d='M485.5,446.0 L485.5,437.0 M485.5,18.1 L485.5,27.1  '/>	<g transform="translate(485.5,467.9)" stroke="none" fill="black" font-family="Arial" font-size="12.00"  text-anchor="middle">
		<text><tspan font-family="Arial" > 10</tspan></text>
	</g>
</g>
<g fill="none" color="black" stroke="currentColor" stroke-width="1.00" stroke-linecap="butt" stroke-linejoin="miter">
	<path stroke='black'  d='M571.8,446.0 L571.8,437.0 M571.8,18.1 L571.8,27.1  '/>	<g transform="translate(571.8,467.9)" stroke="none" fill="black" font-family="Arial" font-size="12.00"  text-anchor="middle">
		<text><tspan font-family="Arial" > 12</tspan></text>
	</g>
</g>
<g fill="none" color="black" stroke="currentColor" stroke-width="1.00" stroke-linecap="butt" stroke-linejoin="miter">
</g>
<g fill="none" color="black" stroke="currentColor" stroke-width="1.00" stroke-linecap="butt" stroke-linejoin="miter">
	<path stroke='black'  d='M53.9,18.1 L53.9,446.0 L615.0,446.0 L615.0,18.1 L53.9,18.1 Z  '/></g>
<g fill="none" color="black" stroke="currentColor" stroke-width="1.00" stroke-linecap="butt" stroke-linejoin="miter">
</g>
	<g id="gnuplot_plot_1" ><title>p90stdev</title>
<g fill="none" color="black" stroke="currentColor" stroke-width="1.00" stroke-linecap="butt" stroke-linejoin="miter">
	<g transform="translate(275.6,485.9)" stroke="none" fill="black" font-family="Arial" font-size="12.00"  text-anchor="end">
		<text><tspan font-family="Arial" >p90stdev</tspan></text>
	</g>
</g>
<g fill="none" color="black" stroke="currentColor" stroke-width="1.00" stroke-linecap="butt" stroke-linejoin="miter">
	<path stroke='rgb(148,   0, 211)'  d='M283.9,482.0 L326.1,482.0 M53.9,437.8 L97.1,431.7 L140.2,432.6 L183.4,433.4 L226.5,434.0 L269.7,434.2
		L312.9,433.6 L356.0,434.2 L399.2,433.2 L442.4,437.1 L528.7,434.5 L571.8,437.6 L615.0,437.8  '/>	<use xlink:href='#gpPt0' transform='translate(53.9,437.8) scale(4.50)' color='rgb(148,   0, 211)'/>
	<use xlink:href='#gpPt0' transform='translate(97.1,431.7) scale(4.50)' color='rgb(148,   0, 211)'/>
	<use xlink:href='#gpPt0' transform='translate(140.2,432.6) scale(4.50)' color='rgb(148,   0, 211)'/>
	<use xlink:href='#gpPt0' transform='translate(183.4,433.4) scale(4.50)' color='rgb(148,   0, 211)'/>
	<use xlink:href='#gpPt0' transform='translate(226.5,434.0) scale(4.50)' color='rgb(148,   0, 211)'/>
	<use xlink:href='#gpPt0' transform='translate(269.7,434.2) scale(4.50)' color='rgb(148,   0, 211)'/>
	<use xlink:href='#gpPt0' transform='translate(312.9,433.6) scale(4.50)' color='rgb(148,   0, 211)'/>
	<use xlink:href='#gpPt0' transform='translate(356.0,434.2) scale(4.50)' color='rgb(148,   0, 211)'/>
	<use xlink:href='#gpPt0' transform='translate(399.2,433.2) scale(4.50)' color='rgb(148,   0, 211)'/>
	<use xlink:href='#gpPt0' transform='translate(442.4,437.1) scale(4.50)' color='rgb(148,   0, 211)'/>
	<use xlink:href='#gpPt0' transform='translate(528.7,434.5) scale(4.50)' color='rgb(148,   0, 211)'/>
	<use xlink:href='#gpPt0' transform='translate(571.8,437.6) scale(4.50)' color='rgb(148,   0, 211)'/>
	<use xlink:href='#gpPt0' transform='translate(615.0,437.8) scale(4.50)' color='rgb(148,   0, 211)'/>
	<use xlink:href='#gpPt0' transform='translate(305.0,482.0) scale(4.50)' color='rgb(148,   0, 211)'/>
</g>
	</g>
	<g id="gnuplot_plot_2" ><title>p90outlandishness</title>
<g fill="none" color="black" stroke="currentColor" stroke-width="1.00" stroke-linecap="butt" stroke-linejoin="miter">
	<g transform="translate(475.5,485.9)" stroke="none" fill="black" font-family="Arial" font-size="12.00"  text-anchor="end">
		<text><tspan font-family="Arial" >p90outlandishness</tspan></text>
	</g>
</g>
<g fill="none" color="black" stroke="currentColor" stroke-width="1.00" stroke-linecap="butt" stroke-linejoin="miter">
	<path stroke='rgb(  0, 158, 115)'  d='M483.8,482.0 L526.0,482.0 M53.9,28.4 L97.1,26.3 L140.2,32.0 L183.4,31.6 L226.5,28.3 L269.7,28.4
		L312.9,31.0 L356.0,30.6 L399.2,26.3 L442.4,33.4 L528.7,30.0 L571.8,29.6 L615.0,28.4  '/>	<use xlink:href='#gpPt1' transform='translate(53.9,28.4) scale(4.50)' color='rgb(  0, 158, 115)'/>
	<use xlink:href='#gpPt1' transform='translate(97.1,26.3) scale(4.50)' color='rgb(  0, 158, 115)'/>
	<use xlink:href='#gpPt1' transform='translate(140.2,32.0) scale(4.50)' color='rgb(  0, 158, 115)'/>
	<use xlink:href='#gpPt1' transform='translate(183.4,31.6) scale(4.50)' color='rgb(  0, 158, 115)'/>
	<use xlink:href='#gpPt1' transform='translate(226.5,28.3) scale(4.50)' color='rgb(  0, 158, 115)'/>
	<use xlink:href='#gpPt1' transform='translate(269.7,28.4) scale(4.50)' color='rgb(  0, 158, 115)'/>
	<use xlink:href='#gpPt1' transform='translate(312.9,31.0) scale(4.50)' color='rgb(  0, 158, 115)'/>
	<use xlink:href='#gpPt1' transform='translate(356.0,30.6) scale(4.50)' color='rgb(  0, 158, 115)'/>
	<use xlink:href='#gpPt1' transform='translate(399.2,26.3) scale(4.50)' color='rgb(  0, 158, 115)'/>
	<use xlink:href='#gpPt1' transform='translate(442.4,33.4) scale(4.50)' color='rgb(  0, 158, 115)'/>
	<use xlink:href='#gpPt1' transform='translate(528.7,30.0) scale(4.50)' color='rgb(  0, 158, 115)'/>
	<use xlink:href='#gpPt1' transform='translate(571.8,29.6) scale(4.50)' color='rgb(  0, 158, 115)'/>
	<use xlink:href='#gpPt1' transform='translate(615.0,28.4) scale(4.50)' color='rgb(  0, 158, 115)'/>
	<use xlink:href='#gpPt1' transform='translate(504.9,482.0) scale(4.50)' color='rgb(  0, 158, 115)'/>
</g>
	</g>
<g fill="none" color="#FFFFFF" stroke="rgb(  0, 158, 115)" stroke-width="2.00" stroke-linecap="butt" stroke-linejoin="miter">
</g>
<g fill="none" color="black" stroke="currentColor" stroke-width="2.00" stroke-linecap="butt" stroke-linejoin="miter">
</g>
<g fill="none" color="black" stroke="black" stroke-width="1.00" stroke-linecap="butt" stroke-linejoin="miter">
</g>
<g fill="none" color="black" stroke="currentColor" stroke-width="1.00" stroke-linecap="butt" stroke-linejoin="miter">
	<path stroke='black'  d='M53.9,18.1 L53.9,446.0 L615.0,446.0 L615.0,18.1 L53.9,18.1 Z  '/></g>
<g fill="none" color="black" stroke="currentColor" stroke-width="1.00" stroke-linecap="butt" stroke-linejoin="miter">
</g>
</g>
</svg>
